svgs/thin/bowl-hot.svg

<svg xmlns="http://www.w3.org/2000/svg" viewBox="0 0 512 512"><!--! Font Awesome Pro 6.3.0 by @fontawesome - https://fontawesome.com License - https://fontawesome.com/license (Commercial License) Copyright 2023 Fonticons, Inc. --><path d="M136 0C140.4 0 144 3.582 144 8V25.35C144 51.48 157.7 75.7 180.1 89.14C207.3 105.5 224 134.9 224 166.6V183.1C224 188.4 220.4 191.1 216 191.1C211.6 191.1 208 188.4 208 183.1V166.6C208 140.5 194.3 116.3 171.9 102.9C144.7 86.52 128 57.1 128 25.35V8C128 3.582 131.6 0 136 0V0zM1.993 257.9C.9117 239.5 15.53 224 33.94 224H478.1C496.5 224 511.1 239.5 510 257.9L508.4 285.2C503.5 368.4 453.6 438.9 383.1 473.3C378.8 495.4 359.3 512 336 512H175.1C152.7 512 133.2 495.4 128.9 473.3C58.44 438.9 8.495 368.4 3.597 285.2L1.993 257.9zM135.9 458.9C140.4 461.1 143.6 465.3 144.6 470.2C147.5 484.9 160.5 496 176 496H336C351.5 496 364.5 484.9 367.4 470.2C368.4 465.3 371.6 461.1 376.1 458.9C441.5 426.9 487.9 361.5 492.4 284.2L494 256.9C494.6 247.7 487.3 240 478.1 240H33.94C24.73 240 17.42 247.7 17.97 256.9L19.57 284.2C24.12 361.5 70.47 426.9 135.9 458.9V458.9zM272 25.35C272 51.48 285.7 75.7 308.1 89.14C335.3 105.5 352 134.9 352 166.6V183.1C352 188.4 348.4 191.1 344 191.1C339.6 191.1 336 188.4 336 183.1V166.6C336 140.5 322.3 116.3 299.9 102.9C272.7 86.52 256 57.1 256 25.35V8C256 3.582 259.6 0 264 0C268.4 0 272 3.582 272 8V25.35z"/></svg>

<svg xmlns="http://www.w3.org/2000/svg" viewBox="0 0 512 512"><!--! Font Awesome Pro 6.4.0 by @fontawesome - https://fontawesome.com License - https://fontawesome.com/license (Commercial License) Copyright 2023 Fonticons, Inc. --><path d="M136 0c4.4 0 8 3.6 8 8V25.4c0 26.1 13.7 50.3 36.1 63.8c27.2 16.3 43.9 45.8 43.9 77.5V184c0 4.4-3.6 8-8 8s-8-3.6-8-8V166.6c0-26.1-13.7-50.3-36.1-63.8C144.7 86.5 128 57.1 128 25.4V8c0-4.4 3.6-8 8-8zm-.1 458.9c4.5 2.2 7.7 6.4 8.7 11.3c2.9 14.7 15.9 25.8 31.4 25.8H336c15.5 0 28.5-11.1 31.4-25.8c1-4.9 4.2-9.1 8.7-11.3c65.5-32 111.8-97.4 116.4-174.7l1.6-27.3c.5-9.2-6.8-16.9-16-16.9H33.9c-9.2 0-16.5 7.7-16 16.9l1.6 27.3c4.5 77.3 50.9 142.7 116.4 174.7zM2 257.9C.9 239.5 15.5 224 33.9 224H478.1c18.4 0 33 15.5 31.9 33.9l-1.6 27.3c-4.9 83.3-54.8 153.7-125.3 188.2c-4.3 22-23.8 38.7-47.1 38.7H176c-23.3 0-42.8-16.6-47.1-38.7C58.4 438.9 8.5 368.4 3.6 285.2L2 257.9zM272 8V25.4c0 26.1 13.7 50.3 36.1 63.8c27.2 16.3 43.9 45.8 43.9 77.5V184c0 4.4-3.6 8-8 8s-8-3.6-8-8V166.6c0-26.1-13.7-50.3-36.1-63.8C272.7 86.5 256 57.1 256 25.4V8c0-4.4 3.6-8 8-8s8 3.6 8 8z"/></svg>
